icons/chart-scatter.svg

<svg xmlns="http://www.w3.org/2000/svg" width="1em" height="1em" viewBox="0 0 256 256"><path fill="currentColor" d="M232 208a8 8 0 0 1-8 8H32a8 8 0 0 1-8-8V48a8 8 0 0 1 16 0v152h184a8 8 0 0 1 8 8m-100-48a12 12 0 1 0-12-12a12 12 0 0 0 12 12m-24-56a12 12 0 1 0-12-12a12 12 0 0 0 12 12m-32 72a12 12 0 1 0-12-12a12 12 0 0 0 12 12m96-48a12 12 0 1 0-12-12a12 12 0 0 0 12 12m24-40a12 12 0 1 0-12-12a12 12 0 0 0 12 12m-20 76a12 12 0 1 0 12-12a12 12 0 0 0-12 12"/></svg>

<svg xmlns="http://www.w3.org/2000/svg" viewBox="0 0 256 256" fill="currentColor"><path d="M232,208a8,8,0,0,1-8,8H32a8,8,0,0,1-8-8V48a8,8,0,0,1,16,0V200H224A8,8,0,0,1,232,208ZM132,160a12,12,0,1,0-12-12A12,12,0,0,0,132,160Zm-24-56A12,12,0,1,0,96,92,12,12,0,0,0,108,104ZM76,176a12,12,0,1,0-12-12A12,12,0,0,0,76,176Zm96-48a12,12,0,1,0-12-12A12,12,0,0,0,172,128Zm24-40a12,12,0,1,0-12-12A12,12,0,0,0,196,88Zm-20,76a12,12,0,1,0,12-12A12,12,0,0,0,176,164Z"/></svg>
